X: 29358
T: Newmarket
R: polka
M: 2/4
K: Gmajor
|D2DB|AG EG|DB, DB|AG E2|D2 DB|AG EG|Bd AB|AG G2:|
Bd A>B|AG EG|Bd A>B|AG e2|Bd AB|AG EG|D2 DB|AG G2:|

